!!!COM: Fux, Johann Joseph
!!!OMD: Gradus ad Parnassum Exercise
!!!YEC: CC0 1.0 Universal (Public Domain). Mark Gotham and FourScoreAndMore.org waive all rights to this document.
**kern	**kern	**kern	**kern
*part4	*part3	*part2	*part1
*staff4	*staff3	*staff2	*staff1
*I"4	*I"3	*I"2	*I"1
*I'Pno	*I'Pno	*I'Pno	*I'Pno
!!LO:PB:g=z
*clefF4	*clefGv2	*clefG2	*clefG2
*k[]	*k[]	*k[]	*k[]
!!LO:TX:omd:t=
*M4/4	*M4/4	*M4/4	*M4/4
=65	=65	=65	=65
!	!	!	!LO:TX:a:t=Fig. 168; Species&colon; 1; Modal final&colon; e; Cantus firmus&colon; 3
1E	1e	1g#X	1b
=66	=66	=66	=66
1F	1c	1a	1a
=67	=67	=67	=67
1D	1d	1f	1a
=68	=68	=68	=68
1E	1c	1g	1cc
=69	=69	=69	=69
1F	1A	1a	1cc
=70	=70	=70	=70
1F	1a	1f	1cc
=71	=71	=71	=71
1E	1g	1cc	1ee
=72	=72	=72	=72
1A	1e	1cc	1ee
=73	=73	=73	=73
1D	1f	1a	1dd
=74	=74	=74	=74
1E	1e	1g#X	1b
==	==	==	==
*-	*-	*-	*-
!!!software: music21 v.9.7.1
!!!software: music21 v.9.7.1
!!!software: MuseScore 3.4.2
!!!RDF**kern: > = above
!!!RDF**kern: < = below
